images/invoice-management.svg

<svg height="64" viewBox="0 0 64 64" width="64" xmlns="http://www.w3.org/2000/svg"><path d="m23.65625 4c-1.335938 0-2.589844.519531-3.535156 1.464844l-8.65625 8.65625c-.945313.945312-1.464844 2.199218-1.464844 3.535156v39.34375c0 1.652344 1.347656 3 3 3h40c1.652344 0 3-1.347656 3-3v-50c0-1.652344-1.347656-3-3-3zm.34375 2h29c.550781 0 1 .449219 1 1v50c0 .550781-.449219 1-1 1h-40c-.550781 0-1-.449219-1-1v-39h9c1.652344 0 3-1.347656 3-3zm-2 .5v8.5c0 .550781-.449219 1-1 1h-8.5c.105469-.164062.234375-.320312.378906-.464844l8.65625-8.65625c.144532-.140625.300782-.265625.464844-.378906zm-1 13.5c-.550781 0-1 .449219-1 1s.449219 1 1 1h16c.550781 0 1-.449219 1-1s-.449219-1-1-1zm20 0c-.550781 0-1 .449219-1 1s.449219 1 1 1h4c.550781 0 1-.449219 1-1s-.449219-1-1-1zm-20 6c-.550781 0-1 .449219-1 1v12c0 .550781.449219 1 1 1h24c.550781 0 1-.449219 1-1v-12c0-.550781-.449219-1-1-1zm1 2h2v4h-2zm4 0h8v4h-8zm10 0h8v4h-8zm-14 6h2v4h-2zm4 0h8v4h-8zm10 0h8v4h-8zm1 10c-.550781 0-1 .449219-1 1s.449219 1 1 1h8c.550781 0 1-.449219 1-1s-.449219-1-1-1zm-22 6c-.550781 0-1 .449219-1 1v2c0 .550781.449219 1 1 1s1-.449219 1-1v-2c0-.550781-.449219-1-1-1zm5 0c-.550781 0-1 .449219-1 1v2c0 .550781.449219 1 1 1s1-.449219 1-1v-2c0-.550781-.449219-1-1-1zm5 0c-.550781 0-1 .449219-1 1v2c0 .550781.449219 1 1 1s1-.449219 1-1v-2c0-.550781-.449219-1-1-1zm5 0c-.550781 0-1 .449219-1 1v2c0 .550781.449219 1 1 1s1-.449219 1-1v-2c0-.550781-.449219-1-1-1zm5 0c-.550781 0-1 .449219-1 1v2c0 .550781.449219 1 1 1s1-.449219 1-1v-2c0-.550781-.449219-1-1-1zm5 0c-.550781 0-1 .449219-1 1v2c0 .550781.449219 1 1 1s1-.449219 1-1v-2c0-.550781-.449219-1-1-1zm5 0c-.550781 0-1 .449219-1 1v2c0 .550781.449219 1 1 1s1-.449219 1-1v-2c0-.550781-.449219-1-1-1zm5 0c-.550781 0-1 .449219-1 1v2c0 .550781.449219 1 1 1s1-.449219 1-1v-2c0-.550781-.449219-1-1-1zm0 0" fill="#003e6b"/></svg>

<?xml version="1.0" encoding="UTF-8"?>
<svg xmlns="http://www.w3.org/2000/svg" viewBox="0 0 64 64" width="64px" height="64px">
<g id="surface12911067">
<path style=" stroke:none;fill-rule:nonzero;fill:rgb(0%,24.313726%,41.960785%);fill-opacity:1;" d="M 23.65625 4 C 22.320312 4 21.066406 4.519531 20.121094 5.464844 L 11.464844 14.121094 C 10.519531 15.066406 10 16.320312 10 17.65625 L 10 57 C 10 58.652344 11.347656 60 13 60 L 53 60 C 54.652344 60 56 58.652344 56 57 L 56 7 C 56 5.347656 54.652344 4 53 4 Z M 24 6 L 53 6 C 53.550781 6 54 6.449219 54 7 L 54 57 C 54 57.550781 53.550781 58 53 58 L 13 58 C 12.449219 58 12 57.550781 12 57 L 12 18 L 21 18 C 22.652344 18 24 16.652344 24 15 Z M 22 6.5 L 22 15 C 22 15.550781 21.550781 16 21 16 L 12.5 16 C 12.605469 15.835938 12.734375 15.679688 12.878906 15.535156 L 21.535156 6.878906 C 21.679688 6.738281 21.835938 6.613281 22 6.5 Z M 21 20 C 20.449219 20 20 20.449219 20 21 C 20 21.550781 20.449219 22 21 22 L 37 22 C 37.550781 22 38 21.550781 38 21 C 38 20.449219 37.550781 20 37 20 Z M 41 20 C 40.449219 20 40 20.449219 40 21 C 40 21.550781 40.449219 22 41 22 L 45 22 C 45.550781 22 46 21.550781 46 21 C 46 20.449219 45.550781 20 45 20 Z M 21 26 C 20.449219 26 20 26.449219 20 27 L 20 39 C 20 39.550781 20.449219 40 21 40 L 45 40 C 45.550781 40 46 39.550781 46 39 L 46 27 C 46 26.449219 45.550781 26 45 26 Z M 22 28 L 24 28 L 24 32 L 22 32 Z M 26 28 L 34 28 L 34 32 L 26 32 Z M 36 28 L 44 28 L 44 32 L 36 32 Z M 22 34 L 24 34 L 24 38 L 22 38 Z M 26 34 L 34 34 L 34 38 L 26 38 Z M 36 34 L 44 34 L 44 38 L 36 38 Z M 37 44 C 36.449219 44 36 44.449219 36 45 C 36 45.550781 36.449219 46 37 46 L 45 46 C 45.550781 46 46 45.550781 46 45 C 46 44.449219 45.550781 44 45 44 Z M 15 50 C 14.449219 50 14 50.449219 14 51 L 14 53 C 14 53.550781 14.449219 54 15 54 C 15.550781 54 16 53.550781 16 53 L 16 51 C 16 50.449219 15.550781 50 15 50 Z M 20 50 C 19.449219 50 19 50.449219 19 51 L 19 53 C 19 53.550781 19.449219 54 20 54 C 20.550781 54 21 53.550781 21 53 L 21 51 C 21 50.449219 20.550781 50 20 50 Z M 25 50 C 24.449219 50 24 50.449219 24 51 L 24 53 C 24 53.550781 24.449219 54 25 54 C 25.550781 54 26 53.550781 26 53 L 26 51 C 26 50.449219 25.550781 50 25 50 Z M 30 50 C 29.449219 50 29 50.449219 29 51 L 29 53 C 29 53.550781 29.449219 54 30 54 C 30.550781 54 31 53.550781 31 53 L 31 51 C 31 50.449219 30.550781 50 30 50 Z M 35 50 C 34.449219 50 34 50.449219 34 51 L 34 53 C 34 53.550781 34.449219 54 35 54 C 35.550781 54 36 53.550781 36 53 L 36 51 C 36 50.449219 35.550781 50 35 50 Z M 40 50 C 39.449219 50 39 50.449219 39 51 L 39 53 C 39 53.550781 39.449219 54 40 54 C 40.550781 54 41 53.550781 41 53 L 41 51 C 41 50.449219 40.550781 50 40 50 Z M 45 50 C 44.449219 50 44 50.449219 44 51 L 44 53 C 44 53.550781 44.449219 54 45 54 C 45.550781 54 46 53.550781 46 53 L 46 51 C 46 50.449219 45.550781 50 45 50 Z M 50 50 C 49.449219 50 49 50.449219 49 51 L 49 53 C 49 53.550781 49.449219 54 50 54 C 50.550781 54 51 53.550781 51 53 L 51 51 C 51 50.449219 50.550781 50 50 50 Z M 50 50 "/>
</g>
</svg>
